X: 1
T: The Pipe on the Hob
B: O'Neill "Music of Ireland: 1850 Melodies"; p.131, #705, 1903
R: jig
Z: 2018 John Chambers <jc:trillian.mit.edu>
M: 6/8
L: 1/8
K: Dmix
A |\
"D"ded A2G | F2D DED | "C"EDE cBc | "D"E2D D2A |\
"D"dcB cBA | BAG A2G | "C"EDE cBc | "E"E2D D2 :|
e |\
"D"f2d ded | f2d ded | "C"edB c2d | ede age |\
"D"f2d ded | f2d ded | "C"ede age | "D"fdd d2e ||
"D"f2d ded | f2d ded | "C"edB c2d | ede age |\
"D"~f3 "G"gfg | "D"afa "G"gfe | "D"fed "A"eag | "D"fdd d2 |]


